X:1
T:Zum neuen Jahr
T:Josef Rheinberger
T:Text: Eduard Mörike
T:Zum neuen Jahr
T:Nr. 4 aus Fünf Lieder, Op. 31
T:CPDL - Creative Commons Attribution Non Commercial 3.0
T:CPDL - Creative Commons Attribution Non Commercial 3.0
T:CPDL - Creative Commons Attribution Non Commercial 3.0
T:CPDL - Creative Commons Attribution Non Commercial 3.0
C:Josef Rheinberger
Z:Eduard Mörike
Z:CPDL - Creative Commons Attribution Non Commercial 3.0
%%score [ 1 2 3 4 ]
L:1/8
Q:1/4=63
M:3/4
K:Db
V:1 treble nm="Sopran"
V:2 treble nm="Alt"
V:3 treble-8 nm="Tenor"
V:4 bass nm="Bass"
V:1
"^Langsam und zart"!pp! F2 |!<(! F3 F F2 | B2 A2 z A | A3 A!<)! A2 | e2 d2 z d | d3!>(! c B2 | %6
w: Wie|heim- li- cher-|wei- se ein|En- ge- lein|lei- se mit|ro- si- gen|
 B2 =A2!>)!!<(! A2!<)! |!>(! _A3!>)! G F2 | E3 z z2 | z6 | z6 | z2 z2!mf! e2- | e2 dc de | %13
w: Fü- ßen die|Er- de be-|tritt,|||so|_ nah- * te der|
 d2 c2 z2 | z2 z2!f! e2- | e3 d _c2 | _c2 B2 z!p! B | =A2 A2 A2 |!<(! (_A2 c!<)!!>(!B) A2!>)! | %19
w: Mor- gen.|Jauchzt|_ ihm, ihr|From- men, ein|hei- lig Will-|kom- * * men,|
!f![Q:1/4=60]"^rit." d2 A2 AG | !fermata!F3 z ||!pp![Q:1/4=63]"^a tempo" F2 | F2 F3!<(! F | %23
w: Herz, jauch- ze du|mit!|In|ihm sei's be-|
 B2 A2 z A | A3 A A2!<)! | e2 d2 z!>(! d | d3 c B2 | B2!>)! =A2!<(! A2!<)! |!>(! _A3!>)! G F2 | %29
w: gon- nen, der|Mon- de und|Son- nen an|blau- en Ge-|zel- ten des|Him- mels be-|
 E3 z z2 | z6 | z6 | z2 z2!mf! e2- | e2 dc de | d2 c2 z2 | z2 z2!f! e2- | e3 d _c2 | _c2 B2 z2 | %38
w: wegt!|||Du,|_ Va- * ter, du|ra- te!|Len-|* ke und|wen- de!|
!p! =A2 A2 A2 | (_A2 cB) A2 |!f! _c2!<(! c2 cc | (=c2 gf) e2!<)! |!ff! f2 =e>=d e2 | %43
w: Dir in die|Hän- * * de|Herr, dir in die|Hän- * * de|sei al- les ge-|
"^smorz." (f4 F2) |!p![Q:1/4=60]"^rit."!<(! F2!<)!!>(! _GF!>)! E2 | !fermata!D4 |] %46
w: legt, _|sei al- les ge-|legt!|
V:2
!pp! D2 |!<(! D3 D D2 | E2 E2 z E | F3 F!<)! F2 | G2 G2 z G | G3!>(! G G2 | F2 F2!>)!!<(! F2!<)! | %7
w: |||||||
!>(! F3!>)! E D2 | C3 z z2 | z6 | z2 z2!mf!"^so _____" A2- |"^___" A2 GF GA | G2 F2 z2 | %13
w: ||||* nah- * te der|Mor- gen.|
!f! B3 A G2 | G2 F2 _c2- | c3 B A2 | G2 G2 z!p! G | G2 G2 G2 |!<(! G=DE!<)!!>(!=E F2!>)! | %19
w: Jauchzt ihm, ihr|From- men, jauchzt|_ ihm, ihr||||
!f! A2 F2 FE | !fermata!D3 z ||!pp! D2 | D2 D3!<(! D | E2 E2 z E | F3 F F2!<)! | G2 G2 z!>(! G | %26
w: |||||||
 G3 G G2 | F2!>)! F2!<(! F2!<)! |!>(! F3!>)! E D2 | C3 z z2 | z6 | z2 z2!mf! A2- | A2 GF GA | %33
w: |||||Du,|_ Va- * ter, du|
 G2 F2 z2 |!f! B3 A G2 | G2 F2!f! _c2- | c3 B A2 | G2 G2 G2- | G2!p! G2 G2 | %39
w: ra- te!|Len- ke und|wen- de, len-|* ke und|wen- de! Dir|_ in die|
!<(! G=D!<)!!>(!E=E!>)! F2 |!f! A2!<(! A2 AA | A4 A2!<)! |!ff! =A2 =G>F G2 |!>(! F6!>)! | %44
w: |||||
!p! C2 CC C2 | !fermata!A,4 |] %46
w: ||
V:3
!pp! d2 |!<(! d3 d d2 | c2 c2 z c | _c3 c!<)! c2 | B2 B2 z B | B3!>(! =c d2 | %6
w: Wie|heim- li- cher-|wei- se ein|En- ge- lein|lei- se mit|ro- si- gen|
 c2 c2!>)!!<(! c2!<)! |!>(! d2!>)! A2 B2 | c3 z z2 | z2 z2!mf! e2- | e2 dc de | (d2 c2 B2) | %12
w: Fü- ßen die|Er- de be-|tritt,|so|_ nah- * te der|Mor- * *|
 A4 z2 |!f! g3 f e2 | e2 d2 z2 | d2 e2 f2 | g2 B2 z!p! B | _c2 c2 c2 |!<(! =c4!<)!!>(! d2!>)! | %19
w: gen.|Jauchzt ihm, ihr|From- men,|jauchzt ihm, ihr|From- men, ein|hei- lig Will-|kom- men,|
!f! f2 d2 cc | !fermata!A3 z ||!pp! d2 | d2 d3!<(! d | c2 c2 z c | _c3 c c2!<)! | B2 B2 z!>(! B | %26
w: Herz, jauch- ze du|mit!|In|ihm sei's be-|gon- nen, der|Mon- de und|Son- nen an|
 B3 =c d2 | c2!>)! c2!<(! c2!<)! |!>(! d2!>)! A2 B2 | c3 z z2 | z2 z2!mf! e2- | e2 dc de | %32
w: blau- en Ge-|zel- ten des|Him mels be-|wegt!|Du,|_ Va- * ter, du|
 (d2 c2 B2) | A4 z2 |!f! g3 f e2 | e2 d2 z2 |!f! d2 e2 f2 | g2 B2 z2 |!p! _c2 c2 c2 | =c4 d2 | %40
w: ra- * *|te!|Len- ke und|wen- de,|len- ke und|wen- de!|dir in die|Hän- de,|
!f! =d2!<(! e2 ff | gfe_d c2!<)! |!ff! c2 B>B B2 |!>(! (=A2 _A4)!>)! |!p! A2 EF G2 | !fermata!F4 |] %46
w: Herr, dir in die|Hän- * * * de|sei al- les ge-|legt, _|sei al- les ge-|legt!|
V:4
!pp! D,2 |!<(! D,3 D, D,2 | D,2 D,2 z D, | D,3 D,!<)! D,2 | D,2 D,2 z D, | E,3!>(! E, E,2 | %6
w: ||||||
 F,2 F,2!>)!!<(! F,2!<)! |!>(! F,3!>)! F, G,2 | A,3 z!mf! A,2- | A,2 G,F, G,A, | G,2 F,2 F,2 | %11
w: ||* so|_ nah- * te der|Mor- gen, so|
 E,3 E, D,2 | C,2 D,2 z2 |!f! A,3 A, A,2 | B,2 B,2 z2 | F,2 E,2 =D,2 | E,2 E,2 z!p! E, | %17
w: nah- te der|Mor- gen.|||||
 E,2 E,2 E,2 |!<(! (E,2!<)! G,2)!>(! F,2!>)! | z"^Herz"!f! F, A,2 A,,A,, | !fermata!D,3 z || %21
w: ||||
!pp! D,2 | D,2 D,3!<(! D, | D,2 D,2 z D, | D,3 D, D,2!<)! | D,2 D,2 z!>(! D, | E,3 E, E,2 | %27
w: ||||||
 F,2!>)! F,2!<(! F,2!<)! |!>(! F,3!>)! F, G,2 | A,3 z!mf! A,2- | A,2 G,F, G,A, | G,2 F,2 F,2 | %32
w: ||* Du,|_ Va- * ter, du|ra- te, du,|
 E,3 E, D,2 | C,2 D,2 z2 |!f! A,3 A, A,2 | B,2 B,2 z2 |!f! F,2 E,2 =D,2 | E,2 E,2 z2 | %38
w: Va- ter, du|ra- te!|||||
!p! E,2 E,2 E,2 | (E,2 G,2) F,2 |!f! F,2!<(! E,2 =D,D, | (E,3 F,) G,2!<)! |!ff! F,2 C,>C, C,2 | %43
w: |||||
 F,6 |!p! A,,2 A,,A,, A,,2 |"^6. 10. 1869" !fermata!D,4 |] %46
w: |||

